icons/cpu-16.svg

<svg xmlns="http://www.w3.org/2000/svg" width="16" height="16" viewBox="0 0 16 16">
  <defs/>
  <path d="M6.5,0.75 L6.5,2 L9.5,2 L9.5,0.75 C9.5,0.336 9.836,0 10.25,0 C10.664,0 11,0.336 11,0.75 L11,2 L12.25,2 C13.216,2 14,2.784 14,3.75 L14,5 L15.25,5 C15.664,5 16,5.336 16,5.75 C16,6.164 15.664,6.5 15.25,6.5 L14,6.5 L14,9.5 L15.25,9.5 C15.664,9.5 16,9.836 16,10.25 C16,10.664 15.664,11 15.25,11 L14,11 L14,12.25 C14,13.216 13.216,14 12.25,14 L11,14 L11,15.25 C11,15.664 10.664,16 10.25,16 C9.836,16 9.5,15.664 9.5,15.25 L9.5,14 L6.5,14 L6.5,15.25 C6.5,15.664 6.164,16 5.75,16 C5.336,16 5,15.664 5,15.25 L5,14 L3.75,14 C2.784,14 2,13.216 2,12.25 L2,11 L0.75,11 C0.336,11 0,10.664 0,10.25 C0,9.836 0.336,9.5 0.75,9.5 L2,9.5 L2,6.5 L0.75,6.5 C0.336,6.5 0,6.164 0,5.75 C0,5.336 0.336,5 0.75,5 L2,5 L2,3.75 C2,2.784 2.784,2 3.75,2 L5,2 L5,0.75 C5,0.336 5.336,0 5.75,0 C6.164,0 6.5,0.336 6.5,0.75 Z M12.25,12.5 C12.388,12.5 12.5,12.388 12.5,12.25 L12.5,3.75 C12.5,3.612 12.388,3.5 12.25,3.5 L3.75,3.5 C3.612,3.5 3.5,3.612 3.5,3.75 L3.5,12.25 C3.5,12.388 3.612,12.5 3.75,12.5 Z M5.75,5 L10.25,5 C10.664,5 11,5.336 11,5.75 L11,10.25 C11,10.664 10.664,11 10.25,11 L5.75,11 C5.336,11 5,10.664 5,10.25 L5,5.75 C5,5.336 5.336,5 5.75,5 Z M6.5,9.5 L9.5,9.5 L9.5,6.5 L6.5,6.5 Z"/>
</svg>

<svg xmlns="http://www.w3.org/2000/svg" width="16" height="16" viewBox="0 0 16 16"><path d="M6.5.75V2h3V.75a.75.75 0 011.5 0V2h1.25c.966 0 1.75.784 1.75 1.75V5h1.25a.75.75 0 010 1.5H14v3h1.25a.75.75 0 010 1.5H14v1.25A1.75 1.75 0 0112.25 14H11v1.25a.75.75 0 01-1.5 0V14h-3v1.25a.75.75 0 01-1.5 0V14H3.75A1.75 1.75 0 012 12.25V11H.75a.75.75 0 010-1.5H2v-3H.75a.75.75 0 010-1.5H2V3.75C2 2.784 2.784 2 3.75 2H5V.75a.75.75 0 011.5 0zm5.75 11.75a.25.25 0 00.25-.25v-8.5a.25.25 0 00-.25-.25h-8.5a.25.25 0 00-.25.25v8.5c0 .138.112.25.25.25zM5.75 5h4.5a.75.75 0 01.75.75v4.5a.75.75 0 01-.75.75h-4.5a.75.75 0 01-.75-.75v-4.5A.75.75 0 015.75 5zm.75 4.5h3v-3h-3z"/></svg>
